icons/linear-new-building-s-home.svg

<svg xmlns="http://www.w3.org/2000/svg" width="32px" height="32px" viewBox="0 0 32 32" version="1.1">
    <title>linear-new-building-s-home</title>
    <g id="linear-new-building-s-home" stroke-width="1" fill-rule="evenodd">
        <path d="M15.3598156,3.23177872 C15.7306616,2.92274043 16.2693384,2.92274043 16.6401844,3.23177872 L28.6401844,13.2317787 C28.868177,13.4217725 29,13.7032202 29,14 L29,28 C29,28.5522847 28.5522847,29 28,29 L20,29 C19.4477153,29 19,28.5522847 19,28 L19,21 L13,21 L13,28 C13,28.5128358 12.6139598,28.9355072 12.1166211,28.9932723 L12,29 L4,29 C3.44771525,29 3,28.5522847 3,28 L3,14 C3,13.7032202 3.13182301,13.4217725 3.3598156,13.2317787 L15.3598156,3.23177872 Z M16,5.302 L5,14.468 L5,27 L11,27 L11,20 C11,19.4871642 11.3860402,19.0644928 11.8833789,19.0067277 L12,19 L20,19 C20.5522847,19 21,19.4477153 21,20 L21,27 L27,27 L27,14.469 L16,5.302 Z" id="&#24418;&#29366;" fill-rule="nonzero" />
    </g>
</svg>

<svg xmlns="http://www.w3.org/2000/svg" viewBox="0 0 32 32"><path fill="currentColor" d="M15.36 3.232a1 1 0 0 1 1.28 0l12 10A1 1 0 0 1 29 14v14a1 1 0 0 1-1 1h-8a1 1 0 0 1-1-1v-7h-6v7a1 1 0 0 1-.883.993L12 29H4a1 1 0 0 1-1-1V14a1 1 0 0 1 .36-.768zm.64 2.07L5 14.468V27h6v-7a1 1 0 0 1 .883-.993L12 19h8a1 1 0 0 1 1 1v7h6V14.469z"/></svg>
